app/_includes/svgs/technology-logos/logo_mapbox.min.svg

<svg xmlns="http://www.w3.org/2000/svg" viewBox="0 0 150 100" enable-background="new 0 0 150 100"><path fill="#3BB2D0" d="M0 0v79h11.6v-65l23.2 39.5 23.2-39.5v65h11.6v-79h-9.3c-4.6 0-8.2 1.2-10.3 4.6l-15.2 25.9-15.2-25.9c-2-3.4-5.7-4.6-10.3-4.6h-9.3zm0 0"/></svg>

<svg xmlns="http://www.w3.org/2000/svg" viewBox="0 0 150 100" enable-background="new 0 0 150 100"><path fill="#3BB2D0" d="M0 0v79h11.6V14l23.2 39.5L58 14v65h11.6V0h-9.3C55.7 0 52.1 1.2 50 4.6L34.8 30.5 19.6 4.6C17.6 1.2 13.9 0 9.3 0H0zm0 0"/></svg>
